X:2393
T:Yn Eirey Cronk yn Ollee 
C:Traditional
O:Isle of Man
S:Mary Gawne, Peel 
Z:Collected by A.W.Moore et.al.
B:Kiaull Vannin #393 
N:See also KV 226
M:2/4 
L:1/8 
K:G 
d|c A A A|e <e e d|c A G F|!fermata!E2 F G|A F E D|d< d d d|e d d d|d z2||

